gate-and.svg

<svg fill="currentColor" viewBox="0 0 24 24"><path d="M2 4v16h12a8 8 0 0 0 8-8 8 8 0 0 0-8-8zm2 2h10a6 6 0 0 1 6 6 6 6 0 0 1-6 6H4z"/></svg>

<svg  viewBox="0 0 24 24" fill="currentColor"><path  d="M2,4V20H14A8,8 0 0,0 22,12A8,8 0 0,0 14,4H2M4,6H14A6,6 0 0,1 20,12A6,6 0 0,1 14,18H4V6Z"/></svg>
